icons/circle/48/telegram.svg

<svg xmlns="http://www.w3.org/2000/svg" viewBox="0 0 48 48">
 <defs>
  <linearGradient id="linearGradient3764" x1="1" x2="47" gradientUnits="userSpaceOnUse" gradientTransform="matrix(0,-1,1,0,-1.5e-6,47.999998)">
   <stop style="stop-color:#3db0e3;stop-opacity:1"/>
   <stop offset="1" style="stop-color:#50b8e6;stop-opacity:1"/>
  </linearGradient>
  <linearGradient y2="160" x2="160" y1="120" x1="135" gradientTransform="matrix(0.05622958,0,0,0.05622958,0.07160145,-0.0527796)" gradientUnits="userSpaceOnUse" id="linearGradient3102-2">
   <stop style="stop-color:#eff7fc"/>
   <stop offset="1" style="stop-color:#fff"/>
  </linearGradient>
 </defs>
 <g>
  <path d="m 36.31 5 c 5.859 4.062 9.688 10.831 9.688 18.5 c 0 12.426 -10.07 22.5 -22.5 22.5 c -7.669 0 -14.438 -3.828 -18.5 -9.688 c 1.037 1.822 2.306 3.499 3.781 4.969 c 4.085 3.712 9.514 5.969 15.469 5.969 c 12.703 0 23 -10.298 23 -23 c 0 -5.954 -2.256 -11.384 -5.969 -15.469 c -1.469 -1.475 -3.147 -2.744 -4.969 -3.781 z m 4.969 3.781 c 3.854 4.113 6.219 9.637 6.219 15.719 c 0 12.703 -10.297 23 -23 23 c -6.081 0 -11.606 -2.364 -15.719 -6.219 c 4.16 4.144 9.883 6.719 16.219 6.719 c 12.703 0 23 -10.298 23 -23 c 0 -6.335 -2.575 -12.06 -6.719 -16.219 z" style="opacity:0.05"/>
  <path d="m 41.28 8.781 c 3.712 4.085 5.969 9.514 5.969 15.469 c 0 12.703 -10.297 23 -23 23 c -5.954 0 -11.384 -2.256 -15.469 -5.969 c 4.113 3.854 9.637 6.219 15.719 6.219 c 12.703 0 23 -10.298 23 -23 c 0 -6.081 -2.364 -11.606 -6.219 -15.719 z" style="opacity:0.1"/>
  <path d="m 31.25 2.375 c 8.615 3.154 14.75 11.417 14.75 21.13 c 0 12.426 -10.07 22.5 -22.5 22.5 c -9.708 0 -17.971 -6.135 -21.12 -14.75 a 23 23 0 0 0 44.875 -7 a 23 23 0 0 0 -16 -21.875 z" style="opacity:0.2"/>
 </g>
 <g>
  <path d="m 24 1 c 12.703 0 23 10.297 23 23 c 0 12.703 -10.297 23 -23 23 -12.703 0 -23 -10.297 -23 -23 0 -12.703 10.297 -23 23 -23 z" style="fill:url(#linearGradient3764);fill-opacity:1"/>
 </g>
 <g>
  <path d="m 40.03 7.531 c 3.712 4.084 5.969 9.514 5.969 15.469 0 12.703 -10.297 23 -23 23 c -5.954 0 -11.384 -2.256 -15.469 -5.969 4.178 4.291 10.01 6.969 16.469 6.969 c 12.703 0 23 -10.298 23 -23 0 -6.462 -2.677 -12.291 -6.969 -16.469 z" style="opacity:0.1"/>
 </g>
 <g transform="matrix(3.543307,0,0,3.543307,-5.7124686e-8,-0.01382708)" style="fill:#000;opacity:0.1;fill-opacity:1">
  <path d="m 35.01 14.215 c -0.237 -0.027 -0.497 0.016 -0.76 0.135 l -23.03 8.885 c -1.573 0.631 -1.563 1.505 -0.287 1.898 l 5.91 1.846 0.004 -0.002 2.025 6.67 c 0.269 0.737 0.136 1.031 0.912 1.031 0.599 0 0.86 -0.272 1.193 -0.598 0.205 -0.201 1.515 -1.474 2.865 -2.787 l 5.982 4.424 c 1.098 0.606 1.892 0.293 2.168 -1.021 l 3.924 -18.48 c 0.3 -1.206 -0.196 -1.92 -0.906 -2 z" transform="scale(0.28222223,0.28222223)"/>
 </g>
 <g transform="matrix(3.543307,0,0,3.543307,17,-1.0135719)">
  <g transform="translate(-5.0800672,0)">
   <path d="M 5.582,9.787 C 5.363,9.787 5.401,9.704 5.325,9.496 L 4.682,7.38 8.663,4.893 9.128,5.015 8.742,6.073 Z" style="fill:#c8daea"/>
   <path d="M 5.582,9.787 C 5.751,9.787 5.825,9.71 5.919,9.618 6.064,9.476 7.943,7.65 7.943,7.65 L 6.792,7.371 5.724,8.046 5.582,9.73 Z" style="fill:#a7c2d1"/>
   <path d="m 5.697,8.07 2.719,2.01 c 0.31,0.171 0.534,0.083 0.612,-0.288 L 10.135,4.576 C 10.248,4.122 9.962,3.916 9.665,4.05 l -6.5,2.507 C 2.721,6.735 2.724,6.982 3.084,7.093 L 4.752,7.614 8.613,5.178 C 8.795,5.067 8.963,5.127 8.825,5.249 Z" style="fill:url(#linearGradient3102-2)"/>
  </g>
 </g>
</svg>

<svg xmlns="http://www.w3.org/2000/svg" viewBox="0 0 48 48">
  <defs>
    <linearGradient id="a" x1="1" x2="47" gradientUnits="userSpaceOnUse" gradientTransform="rotate(-90 24 24)">
      <stop stop-color="#3db0e3"/>
      <stop offset="1" stop-color="#50b8e6"/>
    </linearGradient>
    <linearGradient y2="160" x2="160" y1="120" x1="135" gradientTransform="matrix(.05623 0 0 .05623 .072 -.053)" gradientUnits="userSpaceOnUse" id="b">
      <stop stop-color="#eff7fc"/>
      <stop offset="1" stop-color="#fff"/>
    </linearGradient>
  </defs>
  <path d="M36.31 5c5.859 4.062 9.688 10.831 9.688 18.5 0 12.426-10.07 22.5-22.5 22.5-7.669 0-14.438-3.828-18.5-9.688a23.24 23.24 0 0 0 3.781 4.969 22.923 22.923 0 0 0 15.469 5.969c12.703 0 23-10.298 23-23a22.92 22.92 0 0 0-5.969-15.469A23.216 23.216 0 0 0 36.31 5zm4.969 3.781A22.911 22.911 0 0 1 47.498 24.5c0 12.703-10.297 23-23 23a22.909 22.909 0 0 1-15.719-6.219C12.939 45.425 18.662 48 24.998 48c12.703 0 23-10.298 23-23 0-6.335-2.575-12.06-6.719-16.219z" opacity=".05"/>
  <path d="M41.28 8.781a22.923 22.923 0 0 1 5.969 15.469c0 12.703-10.297 23-23 23A22.92 22.92 0 0 1 8.78 41.281 22.911 22.911 0 0 0 24.499 47.5c12.703 0 23-10.298 23-23A22.909 22.909 0 0 0 41.28 8.781z" opacity=".1"/>
  <path d="M31.25 2.375C39.865 5.529 46 13.792 46 23.505c0 12.426-10.07 22.5-22.5 22.5-9.708 0-17.971-6.135-21.12-14.75a23 23 0 0 0 44.875-7 23 23 0 0 0-16-21.875z" opacity=".2"/>
  <path d="M24 1c12.703 0 23 10.297 23 23S36.703 47 24 47 1 36.703 1 24 11.297 1 24 1z" fill="url(#a)"/>
  <path d="M40.03 7.531A22.922 22.922 0 0 1 45.999 23c0 12.703-10.297 23-23 23A22.92 22.92 0 0 1 7.53 40.031C11.708 44.322 17.54 47 23.999 47c12.703 0 23-10.298 23-23 0-6.462-2.677-12.291-6.969-16.469z" opacity=".1"/>
  <g opacity=".1">
    <path d="M35.01 14.201a1.45 1.45 0 0 0-.76.135l-23.03 8.885c-1.573.631-1.563 1.505-.287 1.898l5.91 1.846.004-.002 2.025 6.67c.269.737.136 1.031.912 1.031.599 0 .86-.272 1.193-.598l2.865-2.787 5.982 4.424c1.098.606 1.892.293 2.168-1.02l3.924-18.48c.3-1.207-.196-1.92-.906-2z"/>
  </g>
  <g>
    <path d="M18.779 33.665c-.776 0-.642-.294-.911-1.031l-2.278-7.498 14.105-8.812 1.648.432-1.368 3.749z" fill="#c8daea"/>
    <path d="M18.779 33.665c.598 0 .86-.273 1.194-.599.513-.503 7.171-6.973 7.171-6.973l-4.078-.989-3.784 2.392-.503 5.967z" fill="#a7c2d1"/>
    <path d="M5.697 8.07l2.719 2.01c.31.171.534.083.612-.288l1.107-5.216c.113-.454-.173-.66-.47-.526l-6.5 2.507c-.444.178-.441.425-.081.536l1.668.521 3.861-2.436c.182-.111.35-.051.212.071z" fill="url(#b)" transform="matrix(3.5433 0 0 3.5433 -1 -1.014)"/>
  </g>
</svg>
